-----BEGIN PGP PUBLIC KEY BLOCK-----

mQINBGqRX9MBEACvtgn3Xsa6WsuWN7ffLMTILKbAtOPm4ojJM8qFktjoEpy7vv2G
yP1fGCiXcqJekc9M9tHz52Oi2xQe0T1og+YQD/e+23KggngghiZI+F00B0n04L13
geWCvd5WM+n4PFBnkwpBVjfQzTMHxsW44UtbLDjHAtfYG2z9HjbW0hEVoj7MGyfL
YB5cwDsUHUabRB91/dPz/er5MsEYtQIu9RoJ9Z9r6vJcwcN9unOk+WR9bB47sBLF
bXGSl+iElfe1E1zioLfgr3F3oytEMB9n66GEHoXLWpsBuM6l9HWNAEB2YXVCB0dL
L1BLZNR4uNChTy2NrLlhZKGdosY+6s4P1t7+tMzcKrl5EpUBgcbz1CSAil87GnoS
zeYROt9TZSiQPt00wXPosbSs10q3GNiCdydbymk4im9xu05Xn5IZZzLVpi9bl5Ig
2IkbGKeK1YhkqOxCLAOCfa6uyY7ndJkqSnVNN9odiPxAMOHK1HXYPLRNKOCJV852
g8xeyeK72Orc8N8K+4NhWPeb5dSdOXeVr4MBsxlCZYGfR4Hr3GNwr8SJ0eFtReI/
RsGRfv4nRUUMqDAfbt/MZHhSef4wCS1ENKFlDiDAPmzwK2C6I4JVvjQ7EWEOirvV
gIzhPBQ1PkkdNvi1KXaBlnqFSRCthjsTL5IV0q7lKN9AKxFcsH+cXk5T/QARAQAB
tCl0YW1uZCAocmVsZWFzZSBzaWduaW5nKSA8dGFtbmRAdGFtbmQuY29tPokCNgQw
AQgAIBYhBPc3BVw6zTlWL+JhY0bRVkMcIYJyBQJqkXc3Ah0gAAoJEEbRVkMcIYJy
uWYQAJBu23ExgyOXvAl7Mh8fGaSPzW9xjFnOaKv3tsXGYi4p72k7QhJKWqCA50NA
E5c2I6rux7CMGZ2/MEPgEuV7rlGpeXpJqYqqk8e/nKfqd/Xroczggsbt5w+SDFk+
atoBViTlWuNCFK1+iDAmoR00bTb4LgPc6y8kkliHIM743Jjp5Vm7Jf1cidoTPXN/
M//PxsiMTEmpUIAyD9WUNjIhhDiEOrrMiutI8AlM1ALnvQqNHvXR1EqIaN6gJCtS
1XsGo8z3Uo9gQReKj9PQH0W/ak3zGPgK10WLkKFIq/QigAx1SRicLVhDzknnMgEk
ks5qnrFO/stWLzVmR3Ovq8YJs68vz/17HTkdFEGkl7F1+OLEMLmiGh923zh+FwSW
g8qeBQLvYL7IuwhmV++JjGXoqu4LhNVwjmeBV6fLihXwHhFPJB1ftf9M26XFwftP
X9pvAEVlKIZ/Xl04i+08Nn/W4mJGY+c9W+6HEvskOUJNxtZuKy3zlrOx93jbo0yt
WPaXIhjzYsr1xwYCakfzDsA5DZUGGe9XIrv1HZ8hc3lYShlUzq38qTsIEXMf/waH
t736a0E+cZKCtXkSy+M0ljTPBwYU5hbn7/z7LfdeILy9N6HHm1Ix505V661xKVxK
dX7Xlz58LP+16S0sjG/+QX9qMH33FFx5lX/rY/vkfK/yeqvMiQJzBBMBCABdFiEE
9zcFXDrNOVYv4mFjRtFWQxwhgnIFAmqRX9MbFIAAAAAABAAObWFudTIsMi41KzEu
MTIsMCwzAhsDBQkFo5qABQsJCAcCAiICBhUKCQgLAgQWAgMBAh4HAheAAAoJEEbR
VkMcIYJyoMAP/jLGfO+sAAeIXnTUgsGUz/NZTuoVNlS/IZcBZnH8LI+RBdPBMxpm
uQJD5+9lR1FhaK+Nqio5Cy+IzJ6pc/sdYBEpqebGf2RzoG0vAozxzo8kny+k5rkm
YED1gQ08Cw6JCVbqEf+dheGdyZ7TZg56UNx9KnQgN5aHA9KbWSiU7Io7+J79nkmx
4D85kMr+OAAWtMPJzJeGW1q0T5jrqjBEmG265SJua2yULaqWYmtOQ8ygDkV6BLNd
sPeYpA/Rzsy1kV0RpH3T14YlifRMkIjXIfoV0XiC+TOS+lTcDZpSVT8pnsnsBzDx
gw9O2L2G3ol2QRAkHW/EAgmPe7mvpX9giqrmP1GXCSAnIMTMnMZLTvhfWhiUOgfk
hxYNd/e5HIC8L7WES6g8b7Pk+sVp4gCoBcydH1JvdgD63VBQIqTQzh2xCU/CgwWk
MDkeXym0rxQFMVNCsYDoC+fhF352lAAH0Q1op8QnTbFrRB6YkbbGV0cbrZ63Ycdq
UyfDRlii3TVO//8vTAWhNYqQBnxxYwZTFPq8NfldlucY8e4Fp5yrHXnf4jR9tgid
y3so1BpEKJN40uQ2vunKuCBg+uTtNwhqwVG8fQop96iRpyL8zFMvjndvRoGA2Rwh
9a5VNMLaGKl8Cvu0QC9t3I6nR8V1max9Vppw+0s9FeiSlZc+LyEM1LoptCd0YW1u
ZCAocmVsZWFzZSBzaWduaW5nKSA8ZGV2QHRhbW5kLmNvbT6JAnYEEwEIAGAbFIAA
AAAABAAObWFudTIsMi41KzEuMTIsMCwzAhsDBQkFo5qABQsJCAcCAiICBhUKCQgL
AgQWAgMBAh4HAheAFiEE9zcFXDrNOVYv4mFjRtFWQxwhgnIFAmqRdzcCGQEACgkQ
RtFWQxwhgnIYoA//e8RZTV0ZmFAbZbhcFF8vCpSZfFWZMja0me4/t6vFR2GUCumE
s+2jwjfL2j9Foybk41qQW7BvDjdNWKE/7vNYCJ2wHUhcu00eDw7ko0sM756gBBd8
JCSpgih1tmZpvnso9ZoQwENIlnOsT3wSgOEvj0a/ZcyuQfYBSzYemq9zfRBiI56Z
9HwZPBcl856X/Xxj+WfOZCq0KJb5IeFdecKSUrFYruBlKh/DD8RikZJonRK7jY9q
HkwzMTj3vzK2yAH1JmrgvwAs7hFvwjtopcYUn785SV1zlnrXpK//PThmV9u8ctEA
yLRyBnfd9AnM+4tCdllSsIlk3mEQbvBKMi5VNQf/78DWu5I2CMZRU7U+Ej8XL28l
yq8RtwXy2S/N9AyXHx30TQERYq+uOiBKdec6q/FKrsfsMNf6PgGk35RUEHwA8WyT
gupl3+hL9Y3E0wh7Zqdlg5R9Zfri/5fsFokF0U1UBcfHmAIK+51E5jgNwhF9T0se
Wv53GR5uBes4NozfyxyhAijbC3kJuzNe6lG5S4CJ1JuL5aGfmoYTyMCinr8VHA2z
nhgJubYNzEemKIbHi8VqvlKaHL6IOz1e58EKhbRsyMN/SOJDFQz+3HF6FC83oVMy
J902IeMVuiRuISegUzerEJHcyVN0Lw+PZlDv7sieoIMq8hnf43OaAxCYyre5Ag0E
apFf0wEQAKOeU6PekrBs2uVzxzTPmiSmD4DPwdqj47pNAWP7LW1wdqlJMnSIcOqS
VgCAqLBdomXuBunuU957sSnEhVKcbapBqY1VkhlE9P3kuArb+U3DsuCVJtTEb4HZ
cmIEyyhumpm2bWxE3h87xUL+XVZKWj1mZSqP45gvVQQF9PngUZKH/sv28qECZ32W
7angT9yXaC6gLneVVjuznnbUMklAxJ/w8d7lBP+JzkRYZbLaFnzEUIl5lzGPGX+F
FfswRHggu5EAx0yzyEJ2MF+xg1KzwQmeVB3L0n43atLixcTs4D2DVDcTG0fs2G7m
bVVWTAVVLf3OhpSUd/vIDn1SVuIbjqD7HJ6SeuW7cUf6hYD6I/rWfFOdMdiIFCHX
eD1mikE5YG3Or5kJr7RkqnuIvwUEqodzpJRkzYhADF1dyvJbuPIePkg3XyJVUCpU
qj5rZUfk3RoZyuXWbb60SsXNJSdllXfumOTdiPxhjJ572ejN+jg33XZkwGwc6lP3
9JWuvLKVkQUMUs7CQkfgvA8i5Y71T7KUTskwCcH5YXTNcxApP2I/fLGTZ8491gtF
nOPk7kRCFk3lR9h89W/ho013F0kqnTV8bJ1sWFjkFqx84QPRSQGRh6Ka1GG0oDNB
n3Sgaq98GNQj+8IgR7AIYPdlD4oU4+Ynb4YEVvpPrOm/S+yhtVwbABEBAAGJBI4E
GAEIAEIWIQT3NwVcOs05Vi/iYWNG0VZDHCGCcgUCapFf0xsUgAAAAAAEAA5tYW51
MiwyLjUrMS4xMiwwLDMCGwIFCQWjmoACQAkQRtFWQxwhgnLBdCAEGQEIAB0WIQS3
eYNwmjCtpEDA6wOnl5lvoXyX8AUCapFf0wAKCRCnl5lvoXyX8CWpD/9uGERVa17V
c0I1WQDpah3VAU/fIn7cqehbmisAoVPMP1Yqq+L6cHj9oVKMOr8vJ48kldYgsNqR
suWDXRMz3MrQAgKzCc+RLC8RwFXUOxhHP0GmFa8ywND9SoKDY8vCjdlzFn6W2mgE
4yYQTOwiDwEUlyxT8J9FAo3FmjxubuVce3yK890O7mM0IoAi6SWGCwD4NLLqjM4J
2qQ20hUZDZcJhI1k3th/z9X2TRXmfwFgm2kKk9idP3TO8Q7JUnU5haWmRyE5dT20
fSfz8404ns2ysVEZHs2K6VKFl86sloJyRlNL4RbWnM/3Awu2dwzNzlIb5/UzIZQU
mUeOghKE5WMekbG0cr8hxWvtvCOjNsEIP9l/GMt5YCTr8RReQjVmHFb6gtQlak/w
lH8RXQs3kr6TZoafnUQauRvNYFNmuX/kMqGHz328UU3jR4KGgmMdFbuhG1W9t9WH
TQ49uVAB90vuavt5RUjAAVWqStj/Xbg8dXqkz8GwoBNU0M2YwuN97L0Z0JbG/8Kf
wsfGKK0LIB5kEN+M+i4j51O2voEqbhUDYJs/046hhjdm34KITgYjRhQBrhgUl05r
pBqNMp/nhoa8tZw6XXy4p1yeDe5khmsCkUvum9k/HK8neq4rCh0mOZvkZ8PxXznw
kGiahbEZP/4BbWnyLx4pBpD48GGS/dWS+P0sEACnjrqam18ZxD/EJfF8kF/QvpDw
qqVkPtgUBR9b4C52Kr5Kn/qypO6QgPN1pfINcWMXN2GZLP9gmu6bubZ+x6ZkZ8IC
PpWHd6MkYXn4b7ZMR3/rldKkRh6yK0ym13XrtZD2xkTUvD7ZoczuMORhJdGVtTe8
NKgpj0+ClSQg3X5WDa7sikQIRxqG/qrJ2WIWyzZvCCSErVAPTafwnT3L1vI3X5r7
Ihgnd+JQt7eOUi++xymvEsW4icAVkZDyClmyjKH02E6TEMFUo7ixkHnWX6B5Sl+y
iYCAT2PEgnUGMPXCZcylkPTsLioUjwk5tVm20tqegoZIBO933sWNiVqN1CG99AnG
ew5YGtWTkmt5D6AOosv7iX054xs/LWnwzzQpFK6j2tUuEYgBoP/Nn4xFvR222aAl
kh+KspZMsvaSWG4nUylvQz7Bz6rWzhpsfGWUyOijZ9dojzT2aurfI6RJefLQDpEt
NDvmow/hMcifjrQmWfEIzlmUBWvPzc1vLNIm1l0aIFFIH0791qb10b7PdWED8EGv
i0VFJq879l4jCTQFfyuzZSyvEkyItnCJSriEuO1eBKNnKsGq80m3RUdOLVFCFDVK
yHS94/nxMeLUdOhO4vuMVpgziDGkNmjBx0OAt/iV6w9QcxCAC/NtJ7VXdKaHwwoZ
QRmEzcl/Ae46HLmcTw==
=UJkl
-----END PGP PUBLIC KEY BLOCK-----
